X: 1
T: Myra's Jig
C: Ian Lowthian 1991
S: Roaring Jelly collection
Z: 2013 John Chambers <jc:trillian.mit.edu>
M: 6/8
L: 1/8
K: A
   e |\
"A"cBA AfA | "A"eAf ecA | cBA ECE | "D"F3- "E7"F2e |\
"A"cBA "D"AfA | "A"eAf "F#m"aed | "Bm"cBA "E7"FEF | "A"A3- A2 :|
|: f |\
"A"e2(f "D"f)(a2 | "A"a)fe cBA | "A"e2(f "F#m"f)eA | "Bm"cBB "E7"B2f |\
"A"e2(f "E/g#"f)(a2 | "F#m"a)fe cBA | "Bm"BAc "E7"BAF | "A"A3- A2 :|
